austria/municipalities/40615.svg

<?xml version="1.0" encoding="UTF-8"?>
<!DOCTYPE svg PUBLIC "-//W3C//DTD SVG 1.1//EN" "http://www.w3.org/Graphics/SVG/1.1/DTD/svg11.dtd">
<svg xmlns="http://www.w3.org/2000/svg" version="1.1" width="166px" height="207px" style="shape-rendering:geometricPrecision; text-rendering:geometricPrecision; image-rendering:optimizeQuality; fill-rule:evenodd; clip-rule:evenodd" xmlns:xlink="http://www.w3.org/1999/xlink">
<g><path style="opacity:1" fill="#000000" d="M -0.5,-0.5 C 54.8333,-0.5 110.167,-0.5 165.5,-0.5C 165.5,43.8333 165.5,88.1667 165.5,132.5C 157.932,172.068 134.599,196.735 95.5,206.5C 86.8333,206.5 78.1667,206.5 69.5,206.5C 30.0061,196.67 6.67281,171.67 -0.5,131.5C -0.5,87.5 -0.5,43.5 -0.5,-0.5 Z"/></g>
<g><path style="opacity:1" fill="#006632" d="M 3.5,3.5 C 56.1667,3.5 108.833,3.5 161.5,3.5C 161.5,41.1667 161.5,78.8333 161.5,116.5C 144.83,116.667 128.163,116.5 111.5,116C 127.935,105.133 136.269,89.8001 136.5,70C 136.334,50.9798 128.668,35.8131 113.5,24.5C 93.2744,12.7157 72.9411,12.549 52.5,24C 29.9173,42.1534 23.4173,64.9868 33,92.5C 37.3122,102.482 44.1455,110.316 53.5,116C 36.8367,116.5 20.17,116.667 3.5,116.5C 3.5,78.8333 3.5,41.1667 3.5,3.5 Z"/></g>
<g><path style="opacity:1" fill="#fe9900" d="M 74.5,17.5 C 105.633,15.6388 125.466,29.6388 134,59.5C 137.23,85.1973 127.73,104.364 105.5,117C 101.833,117.667 98.1667,117.667 94.5,117C 121.464,107.248 133.297,88.0815 130,59.5C 123.306,35.3012 107.473,22.3012 82.5,20.5C 48.1461,25.1912 32.3127,44.8579 35,79.5C 39.962,98.463 51.7953,110.963 70.5,117C 66.5,117.667 62.5,117.667 58.5,117C 37.7369,104.307 28.5702,85.8068 31,61.5C 36.0555,37.2787 50.5555,22.612 74.5,17.5 Z"/></g>
<g><path style="opacity:1" fill="#fe9900" d="M 77.5,22.5 C 103.825,22.0035 120.658,34.3368 128,59.5C 131.342,79.9693 124.842,96.4693 108.5,109C 83.6302,122.026 62.1302,117.859 44,96.5C 29.816,69.8399 34.6493,47.3399 58.5,29C 64.7438,26.1931 71.0772,24.0265 77.5,22.5 Z"/></g>
<g><path style="opacity:1" fill="#000000" d="M 73.5,28.5 C 99.2458,25.9385 115.746,36.9385 123,61.5C 125.701,87.9403 114.201,104.44 88.5,111C 66.4428,112.552 51.2761,103.052 43,82.5C 37.9157,55.6512 48.0823,37.6512 73.5,28.5 Z"/></g>
<g><path style="opacity:1" fill="#006632" d="M 73.5,30.5 C 75.451,30.2267 76.951,30.8934 78,32.5C 78.6667,40.8333 78.6667,49.1667 78,57.5C 77.586,57.9574 77.086,58.2907 76.5,58.5C 69.7672,52.7697 63.7672,46.4364 58.5,39.5C 62.7283,35.219 67.7283,32.219 73.5,30.5 Z"/></g>
<g><path style="opacity:1" fill="#fe9900" d="M 79.5,30.5 C 81.288,30.2148 82.9547,30.5481 84.5,31.5C 83.5289,40.112 83.1956,48.7786 83.5,57.5C 82.5,57.5 81.5,57.5 80.5,57.5C 80.7778,48.4465 80.4444,39.4465 79.5,30.5 Z"/></g>
<g><path style="opacity:1" fill="#006632" d="M 86.5,30.5 C 94.0535,31.0501 100.72,33.7168 106.5,38.5C 100.885,45.6175 94.7183,52.2841 88,58.5C 87.586,58.0426 87.086,57.7093 86.5,57.5C 85.2223,48.471 85.2223,39.471 86.5,30.5 Z"/></g>
<g><path style="opacity:1" fill="#fe9900" d="M 107.5,39.5 C 109.287,40.4467 110.953,41.6134 112.5,43C 105.069,48.4267 98.2362,54.5934 92,61.5C 91.1667,60.6667 90.3333,59.8333 89.5,59C 95.0954,53.9492 100.595,48.7825 106,43.5C 106.791,42.255 107.291,40.9217 107.5,39.5 Z"/></g>
<g><path style="opacity:1" fill="#fe9900" d="M 55.5,40.5 C 61.1186,46.7853 67.1186,52.7853 73.5,58.5C 74.6102,60.5655 73.9436,61.3989 71.5,61C 65.4646,54.9626 59.1313,49.296 52.5,44C 53.7101,42.9609 54.7101,41.7942 55.5,40.5 Z"/></g>
<g><path style="opacity:1" fill="#006632" d="M 50.5,45.5 C 58.3819,50.7081 65.3819,57.0415 71.5,64.5C 62.1904,65.4983 52.8571,65.8316 43.5,65.5C 44.648,58.3881 46.9813,51.7215 50.5,45.5 Z"/></g>
<g><path style="opacity:1" fill="#006632" d="M 110.5,45.5 C 111.978,45.238 113.311,45.5713 114.5,46.5C 116.573,49.7297 118.406,53.063 120,56.5C 120.74,59.1757 121.073,61.8424 121,64.5C 112.245,65.6497 103.412,65.8163 94.5,65C 93.5494,64.2825 93.3828,63.4491 94,62.5C 99.7029,56.9647 105.203,51.2981 110.5,45.5 Z"/></g>
<g><path style="opacity:1" fill="#fe9900" d="M 77.5,59.5 C 86.1778,57.5148 91.5111,60.8481 93.5,69.5C 90.1691,80.7508 83.6691,83.0842 74,76.5C 71.1916,69.9165 72.3583,64.2499 77.5,59.5 Z"/></g>
<g><path style="opacity:1" fill="#000000" d="M 81.5,62.5 C 90.2068,64.8279 91.5401,69.3279 85.5,76C 77.4899,76.6583 74.6565,73.1583 77,65.5C 78.4087,64.2189 79.9087,63.2189 81.5,62.5 Z"/></g>
<g><path style="opacity:1" fill="#006632" d="M 81.5,64.5 C 86.5741,65.977 87.5741,68.8103 84.5,73C 79.5023,74.3297 77.3357,72.4964 78,67.5C 79.1451,66.3636 80.3117,65.3636 81.5,64.5 Z"/></g>
<g><path style="opacity:1" fill="#fe9900" d="M 43.5,67.5 C 52.1667,67.5 60.8333,67.5 69.5,67.5C 69.5,68.8333 69.5,70.1667 69.5,71.5C 60.8333,71.5 52.1667,71.5 43.5,71.5C 43.5,70.1667 43.5,68.8333 43.5,67.5 Z"/></g>
<g><path style="opacity:1" fill="#fe9900" d="M 94.5,67.5 C 103.5,67.5 112.5,67.5 121.5,67.5C 121.66,69.1992 121.494,70.8659 121,72.5C 112.251,71.5161 103.418,71.1828 94.5,71.5C 94.5,70.1667 94.5,68.8333 94.5,67.5 Z"/></g>
<g><path style="opacity:1" fill="#006632" d="M 44.5,73.5 C 53.5,73.5 62.5,73.5 71.5,73.5C 71.719,74.675 71.3857,75.675 70.5,76.5C 64.4646,82.5374 58.1313,88.204 51.5,93.5C 46.3579,87.7374 44.0246,81.0708 44.5,73.5 Z"/></g>
<g><path style="opacity:1" fill="#006632" d="M 94.5,73.5 C 103.418,73.1828 112.251,73.5161 121,74.5C 120.507,81.8372 118.007,88.5038 113.5,94.5C 106.261,89.7658 99.7605,84.0992 94,77.5C 93.4209,76.0715 93.5876,74.7382 94.5,73.5 Z"/></g>
<g><path style="opacity:1" fill="#fe9900" d="M 71.5,77.5 C 73.6859,77.5106 74.5192,78.5106 74,80.5C 68.1396,86.3604 62.3063,92.1937 56.5,98C 55.0379,97.9372 53.7046,97.2705 52.5,96C 59.3373,90.329 65.6707,84.1624 71.5,77.5 Z"/></g>
<g><path style="opacity:1" fill="#fe9900" d="M 91.5,78.5 C 97.5755,83.069 103.242,88.2356 108.5,94C 109.833,94.6667 111.167,95.3333 112.5,96C 111.234,97.9827 109.568,98.9827 107.5,99C 101.866,92.3643 95.8655,86.031 89.5,80C 90.4158,79.7216 91.0825,79.2216 91.5,78.5 Z"/></g>
<g><path style="opacity:1" fill="#006632" d="M 75.5,80.5 C 76.4959,80.4142 77.3292,80.7476 78,81.5C 78.9168,90.9091 78.5835,100.242 77,109.5C 69.6865,108.262 63.5198,105.095 58.5,100C 58.8623,98.7753 59.3623,97.6086 60,96.5C 65.7271,91.6079 70.8938,86.2746 75.5,80.5 Z"/></g>
<g><path style="opacity:1" fill="#006632" d="M 85.5,81.5 C 86.552,81.3505 87.552,81.5172 88.5,82C 94.8655,88.031 100.866,94.3643 106.5,101C 100.917,105.457 94.5836,108.291 87.5,109.5C 86.7492,108.624 86.2492,107.624 86,106.5C 85.5003,98.1733 85.3336,89.84 85.5,81.5 Z"/></g>
<g><path style="opacity:1" fill="#fe9900" d="M 80.5,82.5 C 81.5,82.5 82.5,82.5 83.5,82.5C 83.1956,91.2214 83.5289,99.888 84.5,108.5C 82.9547,109.452 81.288,109.785 79.5,109.5C 80.4149,100.54 80.7482,91.5404 80.5,82.5 Z"/></g>
<g><path style="opacity:1" fill="#fe9900" d="M 3.5,118.5 C 56.1667,118.5 108.833,118.5 161.5,118.5C 161.5,120.167 161.5,121.833 161.5,123.5C 108.833,123.5 56.1667,123.5 3.5,123.5C 3.5,121.833 3.5,120.167 3.5,118.5 Z"/></g>
<g><path style="opacity:1" fill="#006632" d="M 3.5,125.5 C 56.1667,125.5 108.833,125.5 161.5,125.5C 158.642,162.542 139.642,187.376 104.5,200C 61.7792,208.54 30.2792,193.707 10,155.5C 6.01161,145.906 3.84494,135.906 3.5,125.5 Z"/></g>
<g><path style="opacity:1" fill="#fefffe" d="M -0.5,131.5 C 6.67281,171.67 30.0061,196.67 69.5,206.5C 46.1667,206.5 22.8333,206.5 -0.5,206.5C -0.5,181.5 -0.5,156.5 -0.5,131.5 Z"/></g>
<g><path style="opacity:1" fill="#000000" d="M 92.5,177.5 C 97.2434,170.941 98.7434,163.607 97,155.5C 94.7366,150.876 92.57,146.209 90.5,141.5C 95.2495,138.375 100.083,135.375 105,132.5C 106.833,135.667 108.667,138.833 110.5,142C 109.672,142.915 108.672,143.581 107.5,144C 109.526,147.268 111.026,150.768 112,154.5C 116.204,173.924 109.371,187.757 91.5,196C 68.6848,198.596 55.3514,188.596 51.5,166C 51.8724,158.675 53.8724,151.841 57.5,145.5C 56.5721,144.232 56.4054,142.899 57,141.5C 58.6258,139.083 60.1258,136.583 61.5,134C 66.3029,135.41 70.6362,137.91 74.5,141.5C 69.047,148.979 66.8804,157.312 68,166.5C 71.9591,179.226 80.1257,182.893 92.5,177.5 Z"/></g>
<g><path style="opacity:1" fill="#fefffe" d="M 165.5,132.5 C 165.5,157.167 165.5,181.833 165.5,206.5C 142.167,206.5 118.833,206.5 95.5,206.5C 134.599,196.735 157.932,172.068 165.5,132.5 Z"/></g>
<g><path style="opacity:1" fill="#fe9900" d="M 103.5,135.5 C 105.306,137.089 106.639,139.089 107.5,141.5C 104.003,144.083 100.336,146.416 96.5,148.5C 95.1117,146.891 94.1117,145.058 93.5,143C 96.715,140.277 100.048,137.777 103.5,135.5 Z"/></g>
<g><path style="opacity:1" fill="#fe9900" d="M 61.5,136.5 C 64.9648,137.484 68.1315,139.15 71,141.5C 71.2395,143.977 70.4062,146.144 68.5,148C 64.6385,147.411 61.3052,145.578 58.5,142.5C 60.0383,140.757 61.0383,138.757 61.5,136.5 Z"/></g>
<g><path style="opacity:1" fill="#fe9900" d="M 92.5,177.5 C 95.9024,175.569 98.069,172.569 99,168.5C 99.6806,162.037 99.3473,155.704 98,149.5C 100.697,147.751 103.531,146.585 106.5,146C 114.913,162.867 112.247,177.534 98.5,190C 80.8303,198.831 66.8303,194.831 56.5,178C 52.2733,167.522 52.9399,157.355 58.5,147.5C 59.365,146.417 60.365,146.251 61.5,147C 63.9795,147.879 65.9795,149.379 67.5,151.5C 64.0903,160.411 65.0903,168.745 70.5,176.5C 75.2901,181.119 80.9567,182.619 87.5,181C 89.5844,180.303 91.2511,179.136 92.5,177.5 Z"/></g>
<g><path style="opacity:1" fill="#000000" d="M 62.5,154.5 C 62.2942,152.451 61.4609,152.117 60,153.5C 59.4153,154.998 59.9153,155.998 61.5,156.5C 60.6868,157.653 59.6868,157.653 58.5,156.5C 57.8279,154.14 58.6612,152.14 61,150.5C 63.2103,151.49 63.7103,152.824 62.5,154.5 Z"/></g>
<g><path style="opacity:1" fill="#000000" d="M 106.5,152.5 C 104.821,152.285 103.821,152.952 103.5,154.5C 101.767,153.992 101.434,153.159 102.5,152C 103.5,151.5 104.5,151 105.5,150.5C 106.298,150.957 106.631,151.624 106.5,152.5 Z"/></g>
<g><path style="opacity:1" fill="#0a542b" d="M 62.5,154.5 C 62.6716,155.492 62.3382,156.158 61.5,156.5C 59.9153,155.998 59.4153,154.998 60,153.5C 61.4609,152.117 62.2942,152.451 62.5,154.5 Z"/></g>
<g><path style="opacity:1" fill="#006632" d="M 106.5,152.5 C 106.5,152.833 106.5,153.167 106.5,153.5C 106.5,154.5 106.5,155.5 106.5,156.5C 105.222,156.218 104.222,155.551 103.5,154.5C 103.821,152.952 104.821,152.285 106.5,152.5 Z"/></g>
<g><path style="opacity:1" fill="#000000" d="M 106.5,153.5 C 108.985,154.74 108.985,155.74 106.5,156.5C 106.5,155.5 106.5,154.5 106.5,153.5 Z"/></g>
<g><path style="opacity:1" fill="#000000" d="M 103.5,154.5 C 104.222,155.551 105.222,156.218 106.5,156.5C 105.791,157.404 104.791,157.737 103.5,157.5C 103.5,156.5 103.5,155.5 103.5,154.5 Z"/></g>
<g><path style="opacity:1" fill="#10341d" d="M 59.5,161.5 C 61.3023,162.315 62.3023,163.815 62.5,166C 61.6667,168.5 60.1667,169 58,167.5C 57.5983,166.128 57.0983,164.795 56.5,163.5C 57.6016,162.824 58.6016,162.158 59.5,161.5 Z"/></g>
<g><path style="opacity:1" fill="#10331c" d="M 104.5,161.5 C 108.184,162.372 109.184,164.539 107.5,168C 106.216,168.684 105.049,168.517 104,167.5C 103.82,165.512 103.986,163.512 104.5,161.5 Z"/></g>
<g><path style="opacity:1" fill="#000000" d="M 60.5,174.5 C 59.2541,172.977 59.7541,171.977 62,171.5C 66.7186,173.774 67.052,176.108 63,178.5C 61.5187,177.529 60.6854,176.196 60.5,174.5 Z"/></g>
<g><path style="opacity:1" fill="#000000" d="M 105.5,174.5 C 104.432,173.566 103.099,173.232 101.5,173.5C 102.964,171.016 104.631,171.016 106.5,173.5C 106.376,174.107 106.043,174.44 105.5,174.5 Z"/></g>
<g><path style="opacity:1" fill="#006632" d="M 60.5,174.5 C 62.0927,173.133 63.4261,173.466 64.5,175.5C 64.1667,175.833 63.8333,176.167 63.5,176.5C 62.4822,175.807 61.4822,175.141 60.5,174.5 Z"/></g>
<g><path style="opacity:1" fill="#065c2e" d="M 101.5,173.5 C 103.099,173.232 104.432,173.566 105.5,174.5C 105.5,175.167 105.167,175.5 104.5,175.5C 102.804,177.129 101.804,176.796 101.5,174.5C 101.5,174.167 101.5,173.833 101.5,173.5 Z"/></g>
<g><path style="opacity:1" fill="#000000" d="M 101.5,174.5 C 101.804,176.796 102.804,177.129 104.5,175.5C 103.628,178.966 101.961,179.133 99.5,176C 100.044,175.283 100.711,174.783 101.5,174.5 Z"/></g>
<g><path style="opacity:1" fill="#000000" d="M 97.5,184.5 C 98.895,183.352 98.7284,182.352 97,181.5C 95.5187,182.471 94.6854,183.804 94.5,185.5C 93.2006,183.847 93.5339,182.347 95.5,181C 97.6073,180.146 98.9407,180.812 99.5,183C 99.1639,184.03 98.4972,184.53 97.5,184.5 Z"/></g>
<g><path style="opacity:1" fill="#10301b" d="M 68.5,179.5 C 70.0622,180.785 71.3955,182.285 72.5,184C 72.3865,185.28 71.7199,186.113 70.5,186.5C 66.4741,184.844 65.8074,182.51 68.5,179.5 Z"/></g>
<g><path style="opacity:1" fill="#0c4f29" d="M 97.5,184.5 C 96.779,186.382 95.779,186.715 94.5,185.5C 94.6854,183.804 95.5187,182.471 97,181.5C 98.7284,182.352 98.895,183.352 97.5,184.5 Z"/></g>
<g><path style="opacity:1" fill="#000000" d="M 77.5,184.5 C 83.4454,183.62 88.7787,184.954 93.5,188.5C 92.6667,188.833 91.8333,189.167 91,189.5C 88.4441,187.793 85.6108,186.793 82.5,186.5C 79.3892,186.793 76.5559,187.793 74,189.5C 73.1667,189.167 72.3333,188.833 71.5,188.5C 74.1846,187.984 76.1846,186.65 77.5,184.5 Z"/></g>
</svg>

<svg xmlns="http://www.w3.org/2000/svg" width="166" height="207" style="shape-rendering:geometricPrecision;text-rendering:geometricPrecision;image-rendering:optimizeQuality;fill-rule:evenodd;clip-rule:evenodd"><path style="opacity:1" d="M-.5-.5h166v133c-7.568 39.568-30.901 64.235-70 74h-26c-39.494-9.83-62.827-34.83-70-75V-.5z"/><path style="opacity:1" fill="#006632" d="M3.5 3.5h158v113c-16.67.167-33.337 0-50-.5 16.435-10.867 24.769-26.2 25-46-.166-19.02-7.832-34.187-23-45.5-20.226-11.784-40.559-11.951-61-.5C29.917 42.153 23.417 64.987 33 92.5c4.312 9.982 11.145 17.816 20.5 23.5-16.663.5-33.33.667-50 .5V3.5z"/><path style="opacity:1" fill="#fe9900" d="M74.5 17.5c31.133-1.861 50.966 12.139 59.5 42 3.23 25.697-6.27 44.864-28.5 57.5a30.485 30.485 0 0 1-11 0c26.964-9.752 38.797-28.918 35.5-57.5-6.694-24.199-22.527-37.199-47.5-39-34.354 4.691-50.187 24.358-47.5 59 4.962 18.963 16.795 31.463 35.5 37.5-4 .667-8 .667-12 0C37.737 104.307 28.57 85.807 31 61.5c5.056-24.221 19.556-38.888 43.5-44z"/><path style="opacity:1" fill="#fe9900" d="M77.5 22.5c26.325-.497 43.158 11.837 50.5 37 3.342 20.47-3.158 36.97-19.5 49.5-24.87 13.026-46.37 8.859-64.5-12.5C29.816 69.84 34.65 47.34 58.5 29c6.244-2.807 12.577-4.974 19-6.5z"/><path style="opacity:1" d="M73.5 28.5c25.746-2.561 42.246 8.438 49.5 33 2.701 26.44-8.799 42.94-34.5 49.5-22.057 1.552-37.224-7.948-45.5-28.5-5.084-26.849 5.082-44.849 30.5-54z"/><path style="opacity:1" fill="#006632" d="M73.5 30.5c1.951-.273 3.451.393 4.5 2 .667 8.333.667 16.667 0 25-.414.457-.914.79-1.5 1a120.945 120.945 0 0 1-18-19c4.228-4.281 9.228-7.281 15-9z"/><path style="opacity:1" fill="#fe9900" d="M79.5 30.5c1.788-.285 3.455.048 5 1a176.712 176.712 0 0 0-1 26h-3a198.816 198.816 0 0 0-1-27z"/><path style="opacity:1" fill="#006632" d="M86.5 30.5c7.553.55 14.22 3.217 20 8a174.239 174.239 0 0 1-18.5 20 3.646 3.646 0 0 0-1.5-1 95.572 95.572 0 0 1 0-27z"/><path style="opacity:1" fill="#fe9900" d="M107.5 39.5a25.025 25.025 0 0 1 5 3.5A134.187 134.187 0 0 0 92 61.5L89.5 59A570.954 570.954 0 0 0 106 43.5a10.136 10.136 0 0 0 1.5-4zM55.5 40.5a229.264 229.264 0 0 0 18 18c1.11 2.066.444 2.899-2 2.5a228.28 228.28 0 0 0-19-17 14.692 14.692 0 0 0 3-3.5z"/><path style="opacity:1" fill="#006632" d="M50.5 45.5c7.882 5.208 14.882 11.541 21 19a196.88 196.88 0 0 1-28 1c1.148-7.112 3.481-13.779 7-20zM110.5 45.5c1.478-.262 2.811.071 4 1a83.653 83.653 0 0 1 5.5 10c.74 2.676 1.073 5.342 1 8a119.318 119.318 0 0 1-26.5.5c-.95-.718-1.117-1.55-.5-2.5a394.527 394.527 0 0 0 16.5-17z"/><path style="opacity:1" fill="#fe9900" d="M77.5 59.5c8.678-1.985 14.011 1.348 16 10-3.33 11.25-9.83 13.584-19.5 7-2.808-6.584-1.642-12.25 3.5-17z"/><path style="opacity:1" d="M81.5 62.5c8.707 2.328 10.04 6.828 4 13.5-8.01.658-10.844-2.842-8.5-10.5 1.409-1.281 2.909-2.281 4.5-3z"/><path style="opacity:1" fill="#006632" d="M81.5 64.5c5.074 1.477 6.074 4.31 3 8.5-4.998 1.33-7.164-.504-6.5-5.5a30.139 30.139 0 0 1 3.5-3z"/><path style="opacity:1" fill="#fe9900" d="M43.5 67.5h26v4h-26v-4zM94.5 67.5h27a12.93 12.93 0 0 1-.5 5 179.66 179.66 0 0 0-26.5-1v-4z"/><path style="opacity:1" fill="#006632" d="M44.5 73.5h27c.219 1.175-.114 2.175-1 3a228.28 228.28 0 0 1-19 17c-5.142-5.763-7.475-12.43-7-20zM94.5 73.5a179.66 179.66 0 0 1 26.5 1c-.493 7.337-2.993 14.004-7.5 20-7.239-4.734-13.74-10.4-19.5-17-.58-1.428-.412-2.762.5-4z"/><path style="opacity:1" fill="#fe9900" d="M71.5 77.5c2.186.01 3.02 1.01 2.5 3L56.5 98c-1.462-.063-2.795-.73-4-2a166.105 166.105 0 0 0 19-18.5zM91.5 78.5c6.076 4.569 11.742 9.736 17 15.5l4 2c-1.266 1.983-2.932 2.983-5 3a241.311 241.311 0 0 0-18-19c.916-.278 1.582-.778 2-1.5z"/><path style="opacity:1" fill="#006632" d="M75.5 80.5c.996-.086 1.83.248 2.5 1 .917 9.41.584 18.742-1 28-7.314-1.238-13.48-4.405-18.5-9.5a16.228 16.228 0 0 1 1.5-3.5 116.827 116.827 0 0 0 15.5-16zM85.5 81.5a4.932 4.932 0 0 1 3 .5 241.311 241.311 0 0 1 18 19c-5.583 4.457-11.916 7.291-19 8.5a6.807 6.807 0 0 1-1.5-3c-.5-8.327-.666-16.66-.5-25z"/><path style="opacity:1" fill="#fe9900" d="M80.5 82.5h3a176.712 176.712 0 0 0 1 26c-1.545.952-3.212 1.285-5 1 .915-8.96 1.248-17.96 1-27zM3.5 118.5h158v5H3.5v-5z"/><path style="opacity:1" fill="#006632" d="M3.5 125.5h158c-2.858 37.042-21.858 61.876-57 74.5-42.72 8.54-74.22-6.293-94.5-44.5-3.988-9.594-6.155-19.594-6.5-30z"/><path style="opacity:1" fill="#fefffe" d="M-.5 131.5c7.173 40.17 30.506 65.17 70 75h-70v-75z"/><path style="opacity:1" d="M92.5 177.5c4.743-6.559 6.243-13.893 4.5-22a376.048 376.048 0 0 1-6.5-14 322.868 322.868 0 0 1 14.5-9l5.5 9.5a7.293 7.293 0 0 1-3 2 38.05 38.05 0 0 1 4.5 10.5c4.204 19.424-2.629 33.257-20.5 41.5-22.815 2.596-36.149-7.404-40-30 .372-7.325 2.372-14.159 6-20.5-.928-1.268-1.095-2.601-.5-4a84.731 84.731 0 0 0 4.5-7.5c4.803 1.41 9.136 3.91 13 7.5-5.453 7.479-7.62 15.812-6.5 25 3.96 12.726 12.126 16.393 24.5 11z"/><path style="opacity:1" fill="#fefffe" d="M165.5 132.5v74h-70c39.099-9.765 62.432-34.432 70-74z"/><path style="opacity:1" fill="#fe9900" d="M103.5 135.5c1.806 1.589 3.139 3.589 4 6a94.09 94.09 0 0 1-11 7 14.757 14.757 0 0 1-3-5.5 104.467 104.467 0 0 1 10-7.5zM61.5 136.5c3.465.984 6.632 2.65 9.5 5 .24 2.477-.594 4.644-2.5 6.5-3.862-.589-7.195-2.422-10-5.5a12.799 12.799 0 0 0 3-6z"/><path style="opacity:1" fill="#fe9900" d="M92.5 177.5c3.402-1.931 5.569-4.931 6.5-9 .68-6.463.347-12.796-1-19 2.697-1.749 5.531-2.915 8.5-3.5 8.413 16.867 5.747 31.534-8 44-17.67 8.831-31.67 4.831-42-12-4.227-10.478-3.56-20.645 2-30.5.865-1.083 1.865-1.249 3-.5 2.48.879 4.48 2.379 6 4.5-3.41 8.911-2.41 17.245 3 25 4.79 4.619 10.457 6.119 17 4.5 2.084-.697 3.751-1.864 5-3.5z"/><path style="opacity:1" d="M62.5 154.5c-.206-2.049-1.04-2.383-2.5-1-.585 1.498-.085 2.498 1.5 3-.813 1.153-1.813 1.153-3 0-.672-2.36.161-4.36 2.5-6 2.21.99 2.71 2.324 1.5 4zM106.5 152.5c-1.679-.215-2.679.452-3 2-1.733-.508-2.066-1.341-1-2.5l3-1.5c.798.457 1.131 1.124 1 2z"/><path style="opacity:1" fill="#0a542b" d="M62.5 154.5c.172.992-.162 1.658-1 2-1.585-.502-2.085-1.502-1.5-3 1.46-1.383 2.294-1.049 2.5 1z"/><path style="opacity:1" fill="#006632" d="M106.5 152.5v4c-1.278-.282-2.278-.949-3-2 .321-1.548 1.321-2.215 3-2z"/><path style="opacity:1" d="M106.5 153.5c2.485 1.24 2.485 2.24 0 3v-3zM103.5 154.5c.722 1.051 1.722 1.718 3 2-.709.904-1.709 1.237-3 1v-3z"/><path style="opacity:1" fill="#10341d" d="M59.5 161.5c1.802.815 2.802 2.315 3 4.5-.833 2.5-2.333 3-4.5 1.5a28.854 28.854 0 0 0-1.5-4 44.293 44.293 0 0 0 3-2z"/><path style="opacity:1" fill="#10331c" d="M104.5 161.5c3.684.872 4.684 3.039 3 6.5-1.284.684-2.451.517-3.5-.5a17.65 17.65 0 0 1 .5-6z"/><path style="opacity:1" d="M60.5 174.5c-1.246-1.523-.746-2.523 1.5-3 4.719 2.274 5.052 4.608 1 7-1.481-.971-2.315-2.304-2.5-4zM105.5 174.5c-1.068-.934-2.401-1.268-4-1 1.464-2.484 3.131-2.484 5 0-.124.607-.457.94-1 1z"/><path style="opacity:1" fill="#006632" d="M60.5 174.5c1.593-1.367 2.926-1.034 4 1l-1 1a184.223 184.223 0 0 0-3-2z"/><path style="opacity:1" fill="#065c2e" d="M101.5 173.5c1.599-.268 2.932.066 4 1 0 .667-.333 1-1 1-1.696 1.629-2.696 1.296-3-1v-1z"/><path style="opacity:1" d="M101.5 174.5c.304 2.296 1.304 2.629 3 1-.872 3.466-2.539 3.633-5 .5.544-.717 1.211-1.217 2-1.5zM97.5 184.5c1.395-1.148 1.228-2.148-.5-3-1.481.971-2.315 2.304-2.5 4-1.3-1.653-.966-3.153 1-4.5 2.107-.854 3.44-.188 4 2-.336 1.03-1.003 1.53-2 1.5z"/><path style="opacity:1" fill="#10301b" d="M68.5 179.5a19.366 19.366 0 0 1 4 4.5c-.114 1.28-.78 2.113-2 2.5-4.026-1.656-4.693-3.99-2-7z"/><path style="opacity:1" fill="#0c4f29" d="M97.5 184.5c-.721 1.882-1.721 2.215-3 1 .185-1.696 1.019-3.029 2.5-4 1.728.852 1.895 1.852.5 3z"/><path style="opacity:1" d="M77.5 184.5c5.945-.88 11.279.454 16 4l-2.5 1c-2.556-1.707-5.39-2.707-8.5-3-3.11.293-5.944 1.293-8.5 3l-2.5-1c2.685-.516 4.685-1.85 6-4z"/></svg>
